X: 1243
T: Keklik Dağlarda Şağılar
C: ?
O: Turkey
F: http://compmusic.upf.edu/node/140
N: huseyni--turku--sofyan--keklik_daglarda--
N: makam= huseyni
N: form= turku
N: usul= sofyan = 4/4
M: 4/4
L: 1/16
K: C _2/4B ^3/4f  
Q: 1/4=84
%%MIDI tuningsystem comma53
g4 g2g2 g4 f4  | gfe4e2 =fede d2cB  | \
w:  ARANAĞME  |   | 
A4 g2g2 g4 f4  | 
w:   | 
gfe4e2 =fede d2cB  | d2ed c2d2 e4 e2d2  | \
w:   |   | 
g2d4d2 c2B2 d4  | 
w:   | 
dcBA A2c2 B2A2 c4  | cBA6 zABc defa  | \
w:   |   | 
g4 g2g2 g4 f4  | 
w:  ARANAĞME  | 
gfe4e2 =fede d2cB  | A4 g2g2 g4 f4  | \
w:   |   | 
gfe4e2 =fede d2cB  | 
w:   | 
d2ed c2d2 e4 e2d2  | g2d4d2 c2B2 d4  | \
w:   |   | 
dcBA A2c2 B2A2 c4  | 
w:   | 
cBA6 zABc defa  | g4 g2g2 g4 f4  | {a}gfe4e2 fede d2cB  | 
w:   |  *  Kek lik  dağ lar  |  *  da  *  *  şa ğı *  *  *  lar   SAZ  | 
A4 g2g2 g2f6  | {a}gfe6 =fede d4  | =f4 f2f2 f2e2 fge2  | 
w:  *  Yav rum  di yen   |  *  di *  yen  ağ *  *  *  lar    |  *  Gün den  gü *  ne   | 
z2{a}g2 e2ed d2cd e4  | z4 ee3 e4 e2d2  | \
w:  *  yan *  sa  *  dağ *  *  lar    |  Gö ren le rin   | 
d2{e}d2 c2d2 dcB2 c4  | 
w:  *  *  bağ *  rı  ya nar    | 
cBAG Bcd2 dec2 d4  | z2c4B2 cd3 {c}B2A2  | \
w:  SAZ *  *  *  Ağ *  la rım  *  *  ben   |  kek li ği me  *  ley   | 
A4 G2c2 B2A2 c4  | 
w:  ley   Se her de  *  ö  | 
B2A2 A4 cBAB ABcd  | e4 ee3 e4 e2d2  | \
w:  ten  *  bül bü le   *  *  SAZ  |  *  İ pek len miş   | 
z2d2 c2d2 {e}d2cB c4  | 
w:  tüy *  le *  ri ne    | 
cBAG Bcd2 dec2 d4  | z2c4B2 c2d2 B2A2  | \
w:  SAZ *  *  *  Ya *  nak ta *  *  ki   |  ben le ri ne  ley   | 
A4 G2c2 B2A2 c4  | 
w:  ley   Ağ la rım  *  ben   | 
{c}BAA4A2 {d}cBAB A4  | |


